src/lib/packages/icons/src/assets/filled/wordpress.svg

<svg width="24" height="24" viewBox="0 0 24 24" fill="none" xmlns="http://www.w3.org/2000/svg">
<path d="M3.67 6.47C5.46 3.77 8.52 2 12 2C14.58 2 16.92 2.99 18.7 4.59H18.67C17.67 4.59 16.98 5.44 16.98 6.37C16.98 7.19 17.45 7.9 17.97 8.73C18.35 9.39 18.79 10.25 18.79 11.5C18.79 12.36 18.46 13.36 18.03 14.75L17.02 18.1L13.39 7.28999C14.01 7.25999 14.55 7.2 14.55 7.2C15.1 7.14 15.02 6.35 14.48 6.37C14.48 6.37 12.86 6.50999 11.82 6.50999C10.78 6.50999 9.17 6.37 9.17 6.37C8.63 6.35 8.57 7.18001 9.11 7.21001C9.46 7.25001 9.82 7.27999 10.16 7.28999L11.73 11.58L9.53 18.17L5.86 7.28999C6.48 7.26999 7.02 7.2 7.02 7.2C7.57 7.14 7.50001 6.35 6.96001 6.37C6.96001 6.37 5.33999 6.50999 4.28999 6.50999L3.71001 6.49001L3.67 6.47ZM2.85001 7.98C2.31001 9.21 2 10.57 2 12C2 15.94 4.28 19.33 7.59 20.97L2.85001 7.99001V7.98ZM20.84 7.31C20.97 8.85 20.73 10.38 20.13 11.81L17.08 20.6C20.02 18.86 22 15.66 22 12C22 10.31 21.58 8.71001 20.83 7.32001L20.84 7.31ZM15.28 21.34L12.19 12.88L9.2 21.59C9.03 21.54 8.86 21.48 8.7 21.43C9.74 21.79 10.85 22 12.01 22C13.17 22 14.28 21.79 15.32 21.43L15.28 21.35V21.34Z" fill="currentColor"/>
</svg>

<svg xmlns="http://www.w3.org/2000/svg" width="24" height="24" fill="none"><path fill="currentColor" d="M3.67 6.47A9.967 9.967 0 0 1 12 2c2.58 0 4.92.99 6.7 2.59h-.03c-1 0-1.69.85-1.69 1.78 0 .82.47 1.53.99 2.36.38.66.82 1.52.82 2.77 0 .86-.33 1.86-.76 3.25l-1.01 3.35-3.63-10.81c.62-.03 1.16-.09 1.16-.09.55-.06.47-.85-.07-.83 0 0-1.62.14-2.66.14s-2.65-.14-2.65-.14c-.54-.02-.6.81-.06.84.35.04.71.07 1.05.08l1.57 4.29-2.2 6.59L5.86 7.29c.62-.02 1.16-.09 1.16-.09.55-.06.48-.85-.06-.83 0 0-1.62.14-2.67.14l-.58-.02-.04-.02Zm-.82 1.51A9.983 9.983 0 0 0 2 12c0 3.94 2.28 7.33 5.59 8.97L2.85 7.99v-.01Zm17.99-.67a9.51 9.51 0 0 1-.71 4.5l-3.05 8.79C20.02 18.86 22 15.66 22 12c0-1.69-.42-3.29-1.17-4.68l.01-.01Zm-5.56 14.03-3.09-8.46-2.99 8.71c-.17-.05-.34-.11-.5-.16 1.04.36 2.15.57 3.31.57 1.16 0 2.27-.21 3.31-.57l-.04-.08v-.01Z"/></svg>
